src/pos-icons/vector-ellipse.svg

<svg height="24" viewBox="0 0 24 24" width="24" xmlns="http://www.w3.org/2000/svg"><path d="m23 9v6h-2.65c-.97 2.12-2.92 3.78-5.35 4.54v2.46h-6v-2.46c-3.5-1.09-6-4.04-6-7.54 0-4.42 4.03-8 9-8 3.78 0 7 2.07 8.35 5zm-6 6v-6h1.06c-1.21-1.79-3.47-3-6.06-3-3.87 0-7 2.69-7 6 0 2.39 1.64 4.46 4 5.42v-1.42h6v1.42c1.29-.52 2.35-1.37 3.06-2.42zm2-2h2v-2h-2zm-8 7h2v-2h-2z"/></svg>

<?xml version="1.0" encoding="UTF-8"?><!DOCTYPE svg PUBLIC "-//W3C//DTD SVG 1.1//EN" "http://www.w3.org/Graphics/SVG/1.1/DTD/svg11.dtd"><svg xmlns="http://www.w3.org/2000/svg" xmlns:xlink="http://www.w3.org/1999/xlink" version="1.1" id="mdi-vector-ellipse" width="24" height="24" viewBox="0 0 24 24"><path d="M23,9V15H20.35C19.38,17.12 17.43,18.78 15,19.54V22H9V19.54C5.5,18.45 3,15.5 3,12C3,7.58 7.03,4 12,4C15.78,4 19,6.07 20.35,9H23M17,15V9H18.06C16.85,7.21 14.59,6 12,6C8.13,6 5,8.69 5,12C5,14.39 6.64,16.46 9,17.42V16H15V17.42C16.29,16.9 17.35,16.05 18.06,15H17M19,13H21V11H19V13M11,20H13V18H11V20Z" /></svg>
